assets/assets/images/icons/icon-reddit.svg

<svg xmlns="http://www.w3.org/2000/svg" width="20" height="20"><path fill="#61C192" d="M20 9.4c0-1.2-1-2.2-2.2-2.2-.6 0-1.1.2-1.5.6-1.5-1-3.5-1.6-5.8-1.7l1.2-3.9L15 3c0 1 .8 1.8 1.8 1.8S18.6 4 18.6 3s-.8-1.8-1.8-1.8c-.8 0-1.4.5-1.7 1.1l-3.6-.8c-.2 0-.3.1-.4.2L9.8 6.1c-2.4 0-4.5.7-6.1 1.7-.4-.4-.9-.6-1.5-.6C1 7.2 0 8.2 0 9.4c0 .8.4 1.5 1.1 1.9 0 .2-.1.5-.1.7 0 3.3 4 5.9 8.9 5.9s8.9-2.7 8.9-5.9c0-.2 0-.5-.1-.7.8-.3 1.3-1.1 1.3-1.9zM5.6 10.9c0-.7.6-1.3 1.3-1.3s1.3.6 1.3 1.3-.5 1.3-1.2 1.3-1.4-.6-1.4-1.3zm7.6 3.9c-.7.7-1.7 1-3.2 1-1.5 0-2.5-.3-3.2-1-.1-.1-.1-.3 0-.4.1-.1.3-.1.4 0 .5.5 1.4.8 2.7.8 1.3 0 2.2-.3 2.7-.8.1-.1.3-.1.4 0 .3.1.3.3.2.4zm-.2-2.6c-.7 0-1.3-.6-1.3-1.3s.6-1.3 1.3-1.3c.7 0 1.3.6 1.3 1.3s-.5 1.3-1.3 1.3z"/></svg>

<?xml version="1.0" encoding="utf-8"?>
<!-- Generator: Adobe Illustrator 18.1.1, SVG Export Plug-In . SVG Version: 6.00 Build 0)  -->
<svg version="1.1" id="Layer_1" xmlns="http://www.w3.org/2000/svg" xmlns:xlink="http://www.w3.org/1999/xlink" x="0px" y="0px"
	 width="20px" height="20px" viewBox="0 0 20 20" enable-background="new 0 0 20 20" xml:space="preserve">
<path fill="#61C192" d="M20,9.4c0-1.2-1-2.2-2.2-2.2c-0.6,0-1.1,0.2-1.5,0.6c-1.5-1-3.5-1.6-5.8-1.7l1.2-3.9L15,3l0,0
	c0,1,0.8,1.8,1.8,1.8c1,0,1.8-0.8,1.8-1.8s-0.8-1.8-1.8-1.8c-0.8,0-1.4,0.5-1.7,1.1l-3.6-0.8c-0.2,0-0.3,0.1-0.4,0.2L9.8,6.1
	c-2.4,0-4.5,0.7-6.1,1.7C3.3,7.4,2.8,7.2,2.2,7.2C1,7.2,0,8.2,0,9.4c0,0.8,0.4,1.5,1.1,1.9C1.1,11.5,1,11.8,1,12
	c0,3.3,4,5.9,8.9,5.9s8.9-2.7,8.9-5.9c0-0.2,0-0.5-0.1-0.7C19.5,11,20,10.2,20,9.4z M5.6,10.9c0-0.7,0.6-1.3,1.3-1.3
	s1.3,0.6,1.3,1.3S7.7,12.2,7,12.2S5.6,11.6,5.6,10.9z M13.2,14.8c-0.7,0.7-1.7,1-3.2,1l0,0l0,0c-1.5,0-2.5-0.3-3.2-1
	c-0.1-0.1-0.1-0.3,0-0.4c0.1-0.1,0.3-0.1,0.4,0c0.5,0.5,1.4,0.8,2.7,0.8l0,0l0,0c1.3,0,2.2-0.3,2.7-0.8c0.1-0.1,0.3-0.1,0.4,0
	C13.3,14.5,13.3,14.7,13.2,14.8z M13,12.2c-0.7,0-1.3-0.6-1.3-1.3s0.6-1.3,1.3-1.3c0.7,0,1.3,0.6,1.3,1.3S13.8,12.2,13,12.2z"/>
</svg>
